logo/drip.svg

<?xml version="1.0" encoding="UTF-8"?>
<svg width="512px" height="183px" viewBox="0 0 512 183" version="1.1" xmlns="http://www.w3.org/2000/svg" xmlns:xlink="http://www.w3.org/1999/xlink" preserveAspectRatio="xMidYMid">
    <g>
        <path d="M455.314286,36.5714286 C471.771429,36.5714286 485.790476,42.0571429 496.152381,51.8095238 C506.514286,61.5619048 512,75.5809524 512,92.0380952 C512,109.104762 506.514286,122.514286 496.152381,132.266667 C485.790476,142.019048 471.771429,147.504762 454.704762,147.504762 C437.638095,147.504762 425.447619,142.019048 414.47619,129.828571 L414.47619,182.857143 L394.971429,182.857143 L394.971429,39.0095238 L414.47619,39.0095238 L414.47619,54.8571429 C424.228571,43.2761905 437.028571,36.5714286 455.314286,36.5714286 Z M248.685714,0 L248.685714,143.238095 L229.180952,143.238095 L229.180952,127.390476 C218.819048,140.190476 204.8,146.285714 188.342857,146.285714 C171.885714,146.285714 157.257143,140.8 147.504762,131.047619 C137.752381,121.295238 131.657143,107.27619 131.657143,90.8190476 C131.657143,73.752381 137.142857,60.3428571 147.504762,50.5904762 C157.866667,40.8380952 171.885714,35.352381 188.342857,35.352381 C206.019048,35.352381 218.209524,40.8380952 229.180952,53.0285714 L229.180952,0 L248.685714,0 Z M336.457143,36.5714286 L336.457143,54.247619 L289.52381,54.247619 L289.52381,146.285714 L270.628571,146.285714 L270.628571,36.5714286 L336.457143,36.5714286 Z M371.2,37.7904762 L371.2,146.285714 L352.914286,146.285714 L352.914286,37.7904762 L371.2,37.7904762 Z M16.4571429,88.3809524 L16.4571429,90.2095238 C16.4571429,114.590476 36.5714286,129.219048 54.8571429,129.219048 C73.1428571,129.219048 93.2571429,114.590476 93.2571429,90.2095238 L93.2571429,90.2095238 L93.2571429,88.3809524 L109.714286,88.3809524 L109.714286,88.3809524 L109.714286,90.2095238 C109.714286,123.733333 82.2857143,145.67619 54.8571429,145.67619 C27.4285714,145.67619 0,123.733333 0,90.2095238 L0,90.2095238 L0,88.3809524 L16.4571429,88.3809524 L16.4571429,88.3809524 Z M452.87619,54.247619 C429.104762,54.247619 414.47619,68.2666667 414.47619,92.0380952 C414.47619,115.809524 429.104762,130.438095 452.87619,130.438095 C477.257143,130.438095 491.885714,116.419048 491.885714,92.0380952 C491.885714,68.2666667 477.257143,54.247619 452.87619,54.247619 Z M190.171429,52.4190476 C166.4,52.4190476 151.771429,66.4380952 151.771429,90.8190476 C151.771429,114.590476 166.4,128.609524 190.171429,128.609524 C214.552381,128.609524 229.180952,114.590476 229.180952,90.8190476 C229.180952,67.047619 214.552381,52.4190476 190.171429,52.4190476 Z M21.9428571,51.8095238 C28.0022098,51.8095238 32.9142857,56.7215997 32.9142857,62.7809524 C32.9142857,68.8403051 28.0022098,73.752381 21.9428571,73.752381 C15.8835045,73.752381 10.9714286,68.8403051 10.9714286,62.7809524 C10.9714286,56.7215997 15.8835045,51.8095238 21.9428571,51.8095238 Z M54.8571429,51.8095238 C60.9164955,51.8095238 65.8285714,56.7215997 65.8285714,62.7809524 C65.8285714,68.8403051 60.9164955,73.752381 54.8571429,73.752381 C48.7977902,73.752381 43.8857143,68.8403051 43.8857143,62.7809524 C43.8857143,56.7215997 48.7977902,51.8095238 54.8571429,51.8095238 Z M87.7714286,51.8095238 C93.8307813,51.8095238 98.7428571,56.7215997 98.7428571,62.7809524 C98.7428571,68.8403051 93.8307813,73.752381 87.7714286,73.752381 C81.7120759,73.752381 76.8,68.8403051 76.8,62.7809524 C76.8,56.7215997 81.7120759,51.8095238 87.7714286,51.8095238 Z M54.8571429,0 C67.047619,10.9714286 77.4095238,23.7714286 87.1619048,36.5714286 L87.1619048,36.5714286 L66.4380952,36.5714286 L54.8571429,20.7238095 L43.2761905,36.5714286 L22.552381,36.5714286 C32.3047619,23.7714286 42.6666667,10.9714286 54.8571429,0 Z M367.542857,1.82857143 C371.2,3.65714286 373.028571,7.31428571 373.028571,11.5809524 C373.028571,15.847619 371.2,20.1142857 367.542857,21.9428571 C363.885714,24.3809524 360.228571,24.3809524 356.571429,21.9428571 C352.914286,20.1142857 351.085714,15.847619 351.085714,11.5809524 C351.085714,7.31428571 352.914286,3.65714286 356.571429,1.82857143 C360.228571,-0.60952381 363.885714,-0.60952381 367.542857,1.82857143 Z" fill="#000000"></path>
    </g>
</svg>

<svg viewBox="0 0 512 183" xmlns="http://www.w3.org/2000/svg"><path d="M455.31 36.57c16.45 0 30.47 5.48 40.83 15.23s15.84 23.77 15.84 40.22c0 17.06-5.49 30.47-15.85 40.22 -10.37 9.75-24.39 15.23-41.45 15.23 -17.07 0-29.26-5.49-40.23-17.68v53.02h-19.51V38.96h19.5V54.8c9.75-11.59 22.55-18.29 40.83-18.29ZM248.68-.01v143.23h-19.51v-15.85c-10.37 12.8-24.39 18.89-40.84 18.89 -16.46 0-31.09-5.49-40.84-15.24 -9.76-9.76-15.85-23.78-15.85-40.23 0-17.07 5.48-30.48 15.84-40.23 10.36-9.76 24.38-15.24 40.83-15.24 17.67 0 29.86 5.48 40.83 17.67V-.04h19.5Zm87.77 36.57v17.67h-46.94v92.03h-18.9V36.54h65.82Zm34.74 1.21v108.49H352.9V37.76h18.28ZM16.44 88.36v1.82c-.001 24.38 20.11 39 38.4 39 18.28 0 38.4-14.63 38.4-39.01v0 -1.83h16.45v0 1.82c0 33.52-27.43 55.46-54.86 55.46s-54.86-21.95-54.86-55.47v0 -1.83h16.45v0Zm436.41-34.14c-23.78 0-38.4 14.01-38.4 37.79 0 23.77 14.62 38.4 38.4 38.4 24.38 0 39-14.02 39-38.4 0-23.78-14.63-37.8-39.01-37.8Zm-262.71-1.83c-23.78 0-38.4 14.01-38.4 38.4 0 23.77 14.62 37.79 38.4 37.79 24.38 0 39-14.02 39-37.8 0-23.78-14.63-38.4-39.01-38.4Zm-168.23-.61c6.05 0 10.97 4.91 10.97 10.97 0 6.05-4.92 10.97-10.98 10.97 -6.06 0-10.98-4.92-10.98-10.98 0-6.06 4.91-10.98 10.97-10.98Zm32.91 0c6.05 0 10.97 4.91 10.97 10.97 0 6.05-4.92 10.97-10.98 10.97 -6.06 0-10.98-4.92-10.98-10.98 0-6.06 4.91-10.98 10.97-10.98Zm32.91 0c6.05 0 10.97 4.91 10.97 10.97 0 6.05-4.92 10.97-10.98 10.97 -6.06 0-10.98-4.92-10.98-10.98 0-6.06 4.91-10.98 10.97-10.98ZM54.81-.03C67 10.94 77.36 23.74 87.11 36.54v0H66.38L54.79 20.69 43.2 36.53H22.47c9.75-12.8 20.11-25.6 32.3-36.58Zm312.68 1.82c3.65 1.82 5.48 5.48 5.48 9.75 0 4.26-1.83 8.53-5.49 10.36 -3.66 2.43-7.32 2.43-10.98 0 -3.66-1.83-5.49-6.1-5.49-10.37s1.82-7.93 5.48-9.76c3.65-2.44 7.31-2.44 10.97-.001Z"/></svg>
